dist/img/partners/logo-2.svg

<svg width="118" height="26" viewBox="0 0 118 26" fill="none" xmlns="http://www.w3.org/2000/svg">
<path d="M8.9254 14.1624L15.8713 25.1308C15.9534 25.2563 16.0664 25.3582 16.1991 25.4266C16.332 25.4949 16.4801 25.5274 16.629 25.5208H19.2023C19.3184 25.5222 19.4336 25.5002 19.5412 25.4561C19.6487 25.412 19.7465 25.3467 19.8287 25.264C19.9109 25.1813 19.9759 25.083 20.0198 24.9747C20.0639 24.8663 20.086 24.7503 20.0849 24.6332V1.40444C20.0831 1.21918 20.0245 1.03902 19.9172 0.888656C19.8098 0.738291 19.6589 0.625087 19.4852 0.56457C19.3115 0.504053 19.1234 0.499186 18.9469 0.550638C18.7703 0.602089 18.6139 0.707338 18.499 0.851952L8.9254 13.096C8.82167 13.2542 8.76636 13.4396 8.76636 13.6292C8.76636 13.8188 8.82167 14.0042 8.9254 14.1624Z" fill="white"/>
<path d="M1.11696 25.5171H5.69925C5.81536 25.5184 5.93057 25.4964 6.03813 25.4523C6.14568 25.4082 6.24343 25.3429 6.32563 25.2603C6.40783 25.1776 6.47284 25.0792 6.5168 24.9709C6.56083 24.8626 6.58296 24.7465 6.58185 24.6294V18.7389C6.57905 18.5539 6.51966 18.3743 6.41191 18.2245C6.30414 18.0748 6.15318 17.9621 5.97959 17.9019C5.80601 17.8418 5.61824 17.8369 5.44187 17.8883C5.26549 17.9395 5.1091 18.0444 4.99397 18.1885L0.411686 24.079C0.313875 24.2123 0.254402 24.3701 0.2398 24.5353C0.225199 24.7004 0.256034 24.8664 0.328919 25.015C0.401803 25.1636 0.513915 25.2891 0.652939 25.3777C0.791963 25.4663 0.952517 25.5145 1.11696 25.5171Z" fill="white"/>
<path d="M82.9613 12.2732C82.9092 12.2086 82.8515 12.1482 82.7902 12.0925L82.6953 12.0112L82.6469 11.9685C82.4287 11.7833 82.1912 11.6213 81.9395 11.4851C81.6666 11.3202 81.3777 11.1841 81.0776 11.0788C80.7701 10.9682 80.4538 10.8839 80.132 10.827C79.3018 10.6782 78.4486 10.7219 77.6376 10.955C77.1528 11.0932 76.6871 11.2917 76.2512 11.546C75.8228 11.799 75.4278 12.1062 75.0762 12.4601C74.7259 12.8171 74.4171 13.213 74.1555 13.6402C73.8895 14.0705 73.6861 14.537 73.5509 15.0255C73.2651 16.0358 73.2651 17.1067 73.5509 18.117C73.6892 18.6036 73.8926 19.069 74.1555 19.5002C74.4171 19.9275 74.7259 20.3233 75.0762 20.6803C75.4297 21.0346 75.8252 21.3425 76.2549 21.5964C76.6921 21.8435 77.1552 22.0411 77.6358 22.1855C78.4672 22.4356 79.3465 22.4796 80.199 22.3134C80.5264 22.2588 80.847 22.1668 81.1539 22.0392C81.4484 21.9181 81.733 21.7748 82.0064 21.6107C82.2774 21.4476 82.539 21.2679 82.7883 21.0723C82.8596 21.0093 82.9272 20.9415 82.9898 20.8693L83.0221 20.8327C83.0816 20.7609 83.1268 20.6781 83.1547 20.589L83.1671 20.5158C83.1733 20.3988 83.1461 20.2825 83.0884 20.1806L83.0599 20.136C83.0382 20.1 83.0134 20.066 82.9855 20.0344L82.9111 19.9328C82.7616 19.7297 82.6209 19.5266 82.4696 19.3398C82.4057 19.2656 82.3257 19.2072 82.2358 19.1692C82.1466 19.1387 82.0492 19.1387 81.9599 19.1692C81.8316 19.2268 81.715 19.3073 81.6152 19.4068L81.4825 19.5205C81.351 19.6302 81.281 19.7013 81.0975 19.8313C80.9325 19.9581 80.7539 20.0664 80.5655 20.1543C80.3621 20.2587 80.1463 20.3352 79.9225 20.3818C79.1871 20.5423 78.4207 20.4611 77.7343 20.1502C77.2929 19.9499 76.8923 19.6697 76.5513 19.3235C76.2016 18.9696 75.922 18.5518 75.7273 18.0926C75.5202 17.6265 75.4129 17.1216 75.4129 16.6108C75.4129 16.1001 75.5202 15.5952 75.7273 15.1291C75.9238 14.6675 76.2022 14.2462 76.5495 13.886C76.8948 13.5376 77.296 13.2505 77.7362 13.037C78.3736 12.732 79.0929 12.6464 79.7836 12.7932C80.0149 12.8466 80.2412 12.9186 80.4607 13.0085C80.6702 13.0981 80.8724 13.204 81.0652 13.3254C81.4682 13.565 81.9233 14.2516 82.3648 13.7072L83.0035 12.842C83.0338 12.8005 83.0549 12.7534 83.0661 12.7035C83.0779 12.6537 83.0791 12.6019 83.0704 12.5515C83.0593 12.4507 83.0214 12.3546 82.9613 12.2732Z" fill="white"/>
<path d="M43.6673 21.481L36.6791 5.45278C36.6322 5.33376 36.5511 5.23154 36.4464 5.15918C36.3415 5.08682 36.2177 5.0476 36.0906 5.04654H34.9703C34.845 5.04604 34.7224 5.08303 34.618 5.15281C34.5136 5.2226 34.4322 5.32205 34.3839 5.43856L27.3815 21.4627C27.3334 21.5607 27.3117 21.6698 27.3188 21.7789C27.3259 21.8881 27.3614 21.9934 27.4218 22.0842C27.4789 22.1771 27.5588 22.2535 27.6538 22.3061C27.7487 22.3588 27.8555 22.3859 27.9638 22.3849H28.9976C29.1236 22.3874 29.2473 22.3513 29.3524 22.2813C29.4575 22.2112 29.539 22.1106 29.586 21.9928L31.2665 18.0381H39.7601L41.4306 21.9928C41.4776 22.1122 41.559 22.2146 41.6642 22.287C41.7694 22.3594 41.8937 22.3984 42.021 22.3991H43.0286C43.133 22.4057 43.2375 22.3861 43.3326 22.3417C43.4276 22.2974 43.5101 22.2298 43.5727 22.1452C43.6463 22.0533 43.6939 21.9431 43.7106 21.8262C43.7273 21.7093 43.7124 21.59 43.6673 21.481ZM32.1613 15.9967L32.1895 15.9337L35.5567 8.03444L38.934 15.9967H32.1613Z" fill="white"/>
<path d="M107.652 14.782C107.478 14.1617 107.206 13.5739 106.846 13.0412C106.58 12.6828 106.275 12.3563 105.935 12.0683C105.613 11.7794 105.248 11.5436 104.853 11.3695C104.467 11.1755 104.063 11.0243 103.644 10.9186C102.71 10.6867 101.732 10.7057 100.807 10.9735C100.332 11.1064 99.8779 11.3046 99.4569 11.5625C99.0402 11.824 98.6558 12.1334 98.3104 12.4847C97.9713 12.8356 97.6829 13.2337 97.456 13.6668C97.2142 14.1078 97.0294 14.5782 96.906 15.0663C96.6903 15.8436 96.6475 16.6592 96.7808 17.455C96.8155 17.766 96.875 18.0737 96.9581 18.3752C97.1317 18.9968 97.4039 19.586 97.7642 20.1199C98.0295 20.4778 98.3352 20.8035 98.675 21.0909C98.998 21.3801 99.3639 21.6165 99.7588 21.7916C100.144 21.986 100.55 22.1365 100.968 22.2405C102.393 22.5916 103.898 22.3601 105.153 21.5966C105.57 21.3357 105.954 21.0269 106.3 20.6765C106.629 20.3395 106.907 19.9547 107.124 19.535L107.142 19.4944C107.183 19.4391 107.207 19.3735 107.213 19.305C107.219 19.2364 107.205 19.1677 107.174 19.1064C107.149 19.0598 107.112 19.0207 107.067 18.9929C107.023 18.965 106.971 18.9496 106.918 18.9479H105.248C105.178 18.9463 105.108 18.961 105.044 18.9909C104.98 19.0209 104.924 19.0652 104.879 19.1206C104.669 19.3779 104.423 19.6035 104.15 19.7909C103.857 19.9794 103.539 20.1237 103.205 20.2195C102.463 20.4359 101.673 20.4132 100.946 20.1545C100.559 20.0127 100.194 19.8127 99.8661 19.5614C99.5468 19.306 99.282 18.9891 99.0861 18.629C98.9149 18.2399 98.794 17.8303 98.7252 17.4103L98.7153 17.3575H98.7717L107.356 17.3392C107.708 17.3392 107.908 17.1199 107.908 16.7299C107.932 16.0707 107.845 15.4123 107.652 14.782ZM105.825 15.5477L98.8784 15.5802L98.8963 15.5213C99.0123 15.126 99.1853 14.7501 99.4104 14.4062C99.685 13.9978 100.033 13.6457 100.438 13.3682C100.733 13.1777 101.054 13.0318 101.391 12.9356C102.132 12.7191 102.922 12.7418 103.65 13.0006C104.038 13.1424 104.402 13.3423 104.73 13.5937C105.051 13.8504 105.317 14.1695 105.512 14.5321C105.682 14.831 105.804 15.1553 105.873 15.4928L105.885 15.5477H105.825Z" fill="white"/>
<path d="M55.9996 20.6663C56.3455 20.3095 56.6491 19.9135 56.9044 19.4862C57.1571 19.047 57.354 18.5775 57.4908 18.0888C57.775 17.0788 57.775 16.0092 57.4908 14.9993C57.354 14.5106 57.1571 14.0411 56.9044 13.6018C56.3986 12.7344 55.6814 12.0115 54.8208 11.5016C54.3899 11.25 53.9305 11.0515 53.4526 10.9105C52.2197 10.5508 50.9013 10.6341 49.7227 11.1461C49.2266 11.3736 48.7636 11.6681 48.3464 12.0216L48.2718 12.0845V11.4589C48.2805 11.3814 48.2718 11.3029 48.2462 11.2292C48.2206 11.1556 48.1788 11.0888 48.1239 11.0336C48.0691 10.9786 48.0026 10.9367 47.9295 10.9111C47.8563 10.8856 47.7784 10.877 47.7015 10.8861H46.823C46.7453 10.8768 46.6665 10.885 46.5924 10.9101C46.5183 10.9354 46.4506 10.9769 46.3945 11.0318C46.3383 11.0866 46.295 11.1535 46.2677 11.2274C46.2403 11.3013 46.2297 11.3803 46.2366 11.4589V24.942C46.2341 25.0166 46.2467 25.091 46.2733 25.1606C46.2999 25.2303 46.3402 25.2938 46.3917 25.3474C46.4433 25.4011 46.505 25.4437 46.5732 25.4728C46.6413 25.5019 46.7147 25.5169 46.7887 25.5168H47.6854C47.8431 25.5216 47.9965 25.464 48.1126 25.3564C48.1651 25.3031 48.2062 25.2395 48.2336 25.1697C48.2609 25.0999 48.2739 25.0252 48.2718 24.9501V21.0096L48.3464 21.0726C48.7577 21.4216 49.2155 21.7108 49.7065 21.9318C50.8845 22.4436 52.2023 22.527 53.4345 22.1674C53.9193 22.0296 54.385 21.831 54.8208 21.5763C55.2512 21.3257 55.6474 21.0198 55.9996 20.6663ZM53.3337 20.1016C52.8875 20.311 52.4012 20.4194 51.909 20.4194C51.4169 20.4194 50.9306 20.311 50.4844 20.1016C50.0363 19.8983 49.6339 19.6053 49.3015 19.2405C48.9602 18.8796 48.6871 18.459 48.4955 17.9994C48.302 17.534 48.2024 17.0344 48.2024 16.5298C48.2024 16.0252 48.302 15.5256 48.4955 15.0602C48.69 14.6088 48.963 14.1961 49.3015 13.8415C49.6403 13.4882 50.0414 13.2016 50.4844 12.9965C50.9304 12.7878 51.4162 12.6797 51.908 12.6797C52.3997 12.6797 52.8856 12.7878 53.3317 12.9965C53.7681 13.2038 54.1634 13.4895 54.4984 13.8395C54.8313 14.1953 55.0988 14.608 55.2883 15.0582C55.4828 15.523 55.583 16.0223 55.583 16.5268C55.583 17.0312 55.4828 17.5305 55.2883 17.9953C55.095 18.4525 54.8273 18.874 54.4964 19.2425C54.1678 19.6021 53.7729 19.894 53.3337 20.1016Z" fill="white"/>
<path d="M61.5351 10.9023H60.6566C60.578 10.8927 60.4982 10.9011 60.4233 10.9268C60.3484 10.9526 60.2801 10.9951 60.2238 11.0512C60.1674 11.1072 60.1243 11.1753 60.0977 11.2505C60.0711 11.3257 60.0617 11.406 60.0702 11.4853V24.9501C60.0684 25.0251 60.0815 25.0997 60.1089 25.1695C60.1362 25.2393 60.1772 25.3029 60.2294 25.3563C60.281 25.4082 60.3423 25.449 60.4097 25.4766C60.4773 25.5042 60.5495 25.5179 60.6223 25.5169H61.517C61.6747 25.5216 61.828 25.464 61.9442 25.3563C61.997 25.3034 62.0384 25.2399 62.0658 25.17C62.0932 25.1001 62.106 25.0252 62.1034 24.9501V21.0096L62.178 21.0725C62.5899 21.422 63.0481 21.7113 63.5404 21.9317C64.7179 22.4438 66.0361 22.5271 67.2681 22.1674C67.753 22.0292 68.2186 21.8306 68.6545 21.5763C69.0842 21.3212 69.4804 21.012 69.8332 20.6562C70.1786 20.2993 70.4812 19.9033 70.736 19.476C70.9884 19.0367 71.1855 18.5673 71.3226 18.0786C71.6084 17.0689 71.6084 15.9987 71.3226 14.9891C71.1862 14.5003 70.989 14.0307 70.736 13.5917C70.2313 12.7239 69.5145 12.0008 68.6545 11.4914C68.2224 11.2402 67.7623 11.0417 67.2842 10.9003C66.0516 10.5408 64.7328 10.6241 63.5541 11.1359C63.0581 11.3634 62.5949 11.6579 62.178 12.0113L62.0974 12.0947V11.4853C62.1075 11.4077 62.1001 11.3288 62.0757 11.2546C62.0512 11.1803 62.0104 11.1126 61.9564 11.0565C61.9022 11.0004 61.8363 10.9574 61.7633 10.9307C61.6904 10.904 61.6123 10.8943 61.5351 10.9023ZM62.3289 15.0744C62.5242 14.6232 62.797 14.2106 63.1349 13.8557C63.4722 13.5001 63.8722 13.2108 64.3136 13.0026C64.7601 12.7939 65.2455 12.6858 65.7379 12.6858C66.2296 12.6858 66.715 12.7939 67.1615 13.0026C67.6036 13.2092 68.0041 13.4956 68.3439 13.8476C68.6769 14.2034 68.9447 14.6161 69.1338 15.0663C69.3291 15.531 69.4296 16.0303 69.4296 16.5348C69.4296 17.0393 69.3291 17.5387 69.1338 18.0034C68.9429 18.4623 68.675 18.8848 68.342 19.2526C68.0134 19.612 67.6184 19.9038 67.1795 20.1118C66.7324 20.3206 66.2463 20.4287 65.754 20.4287C65.2611 20.4287 64.7749 20.3206 64.3279 20.1118C63.8808 19.9077 63.4791 19.6148 63.1473 19.2506C62.8057 18.89 62.5323 18.4694 62.3413 18.0095C62.1465 17.5454 62.0453 17.047 62.0432 16.5432C62.0411 16.0393 62.1383 15.5401 62.3289 15.0744Z" fill="white"/>
<path d="M94.5399 11.3188C94.548 11.24 94.5381 11.1603 94.5114 11.0859C94.4841 11.0115 94.4414 10.9441 94.3849 10.889C94.3285 10.8338 94.2603 10.7923 94.1853 10.7676C94.1109 10.7428 94.0315 10.7354 93.9534 10.746H93.0692C92.9923 10.7369 92.9142 10.7455 92.841 10.771C92.7679 10.7965 92.7015 10.8384 92.6464 10.8935C92.5918 10.9486 92.5502 11.0154 92.5242 11.0891C92.4988 11.1627 92.4901 11.2412 92.4988 11.3188V17.782C92.5062 18.1607 92.4244 18.5358 92.2607 18.8768C92.1206 19.1887 91.9141 19.466 91.6568 19.6893C91.405 19.8984 91.121 20.0639 90.816 20.1788C90.4737 20.3066 90.1098 20.3629 89.7452 20.344C89.3806 20.3251 89.0235 20.2316 88.6961 20.0691C88.386 19.9072 88.117 19.675 87.9105 19.3907C87.7046 19.1202 87.5583 18.8086 87.4814 18.4767C87.3971 18.1391 87.3524 17.7928 87.3481 17.4448V11.4853C87.358 11.2904 87.3121 11.0967 87.2173 10.9267C87.1453 10.8525 87.0579 10.7956 86.9612 10.7605C86.8645 10.7253 86.7615 10.7126 86.6592 10.7236H86.0224C85.9276 10.7204 85.8327 10.7368 85.7447 10.7717C85.656 10.8066 85.576 10.8594 85.5084 10.9267C85.4378 11.0061 85.3832 11.0989 85.3491 11.1997C85.3144 11.3005 85.3001 11.4073 85.3069 11.5137V17.4631C85.2995 18.113 85.3962 18.7597 85.5934 19.3785C85.7788 19.9549 86.0721 20.4899 86.4577 20.9548C86.8428 21.4096 87.3252 21.7707 87.8683 22.0109C88.8126 22.3991 89.85 22.4987 90.8507 22.2974C91.1204 22.2318 91.3846 22.1413 91.6382 22.0272C91.875 21.9164 92.0945 21.7714 92.2892 21.5966L92.4281 21.4666L92.505 21.3914V21.8444C92.5031 21.9111 92.5143 21.9776 92.5385 22.0397C92.5633 22.1018 92.5992 22.1584 92.6457 22.2059C92.699 22.2726 92.7673 22.3257 92.8448 22.361C92.9216 22.3963 93.0066 22.4128 93.0909 22.4091H93.9856C94.0588 22.4106 94.1307 22.3973 94.1983 22.3701C94.2659 22.3429 94.3273 22.3023 94.3787 22.2506C94.4352 22.2003 94.4792 22.1373 94.5071 22.0668C94.535 21.9963 94.5461 21.9201 94.5399 21.8444V11.3188Z" fill="white"/>
<path d="M117.034 17.644C116.848 17.2513 116.579 16.9046 116.244 16.6284C115.879 16.3282 115.472 16.0839 115.035 15.9033C114.542 15.6968 114.031 15.5377 113.508 15.428C113.253 15.3697 113.002 15.293 112.759 15.1984C112.538 15.1173 112.328 15.0096 112.134 14.8775C111.871 14.7177 111.667 14.476 111.553 14.1889C111.487 13.9782 111.487 13.7518 111.553 13.541C111.624 13.3033 111.922 12.6493 113.075 12.5762C114.177 12.5071 114.731 13.09 114.922 13.35C114.951 13.3866 115.221 13.738 115.414 13.9594C115.449 13.9912 115.488 14.0185 115.529 14.0407C115.608 14.0715 115.694 14.082 115.778 14.071C115.862 14.06 115.942 14.0279 116.011 13.9777L116.684 13.474C116.757 13.4299 116.817 13.3674 116.859 13.2927C116.902 13.2178 116.924 13.1333 116.923 13.0474V13.0271C116.894 12.8965 116.842 12.7722 116.77 12.6594C116.572 12.3722 116.356 12.0968 116.125 11.8348C115.92 11.5909 115.68 11.3793 115.412 11.2072C115.135 11.0338 114.833 10.903 114.518 10.8192C113.619 10.5896 112.672 10.6263 111.793 10.9248C111.349 11.0585 110.938 11.2833 110.584 11.5849C110.246 11.8675 109.976 12.2229 109.792 12.6249C109.609 13.0272 109.512 13.4635 109.506 13.9058C109.5 14.3482 109.585 14.787 109.756 15.1943C109.921 15.5644 110.166 15.8932 110.471 16.1572C110.8 16.4415 111.163 16.685 111.549 16.8823C112.003 17.097 112.475 17.2697 112.96 17.3982C113.103 17.4307 113.246 17.4693 113.395 17.51C113.544 17.5506 113.689 17.5892 113.836 17.6237C114.097 17.6872 114.35 17.7812 114.588 17.904C114.789 18.0006 114.967 18.139 115.11 18.3102C115.236 18.4965 115.301 18.7173 115.297 18.9424C115.293 19.1675 115.22 19.3859 115.088 19.5675C114.941 19.7567 114.761 19.9166 114.556 20.0388C114.346 20.1618 114.12 20.2547 113.885 20.315C113.487 20.4055 113.074 20.4055 112.676 20.315C112.467 20.2606 112.264 20.1843 112.072 20.0875C111.876 19.9891 111.694 19.8663 111.529 19.7219C111.379 19.5533 111.249 19.368 111.14 19.1694C111.089 19.0512 111.013 18.9457 110.916 18.8607C110.84 18.7962 110.746 18.7559 110.647 18.7447C110.547 18.7335 110.448 18.752 110.358 18.7977L109.552 19.1816C109.484 19.2106 109.422 19.2519 109.369 19.3035C109.325 19.3475 109.29 19.3991 109.264 19.4558C109.233 19.5367 109.226 19.6249 109.244 19.7097C109.252 19.795 109.273 19.8787 109.307 19.9575C109.446 20.3259 109.644 20.6689 109.893 20.9732C110.169 21.305 110.506 21.5807 110.884 21.7856C111.238 21.9985 111.623 22.1528 112.025 22.2427C112.949 22.4632 113.914 22.4323 114.822 22.1533C115.301 22.0183 115.75 21.7892 116.141 21.4789C116.519 21.1915 116.823 20.8167 117.026 20.3861C117.226 19.9573 117.33 19.4896 117.331 19.016C117.333 18.5423 117.232 18.074 117.034 17.644Z" fill="white"/>
</svg>

<svg width="118" height="26" fill="none" xmlns="http://www.w3.org/2000/svg"><path opacity=".3" d="M8.925 14.162l6.946 10.969a.865.865 0 00.758.39h2.573a.866.866 0 00.818-.546.886.886 0 00.065-.342V1.404a.902.902 0 00-.6-.84.884.884 0 00-.986.288L8.925 13.096a.973.973 0 000 1.066zM1.117 25.517h4.582a.868.868 0 00.818-.546.885.885 0 00.065-.342v-5.89a.904.904 0 00-.602-.837.886.886 0 00-.986.287l-4.582 5.89a.906.906 0 00.241 1.299.89.89 0 00.464.14zm81.844-13.244a1.606 1.606 0 00-.17-.18l-.096-.082-.048-.042a4.134 4.134 0 00-.708-.484 4.63 4.63 0 00-.861-.406 5.753 5.753 0 00-.946-.252 5.51 5.51 0 00-2.494.128 6.06 6.06 0 00-1.387.591c-.428.253-.823.56-1.175.914-.35.357-.659.753-.92 1.18-.267.43-.47.897-.605 1.385a5.679 5.679 0 000 3.092c.138.487.342.952.605 1.383.261.427.57.823.92 1.18.354.355.75.663 1.179.916.437.247.9.445 1.38.59a5.34 5.34 0 002.564.127c.327-.054.648-.146.955-.274.294-.12.579-.264.852-.428a7.59 7.59 0 00.782-.539c.072-.063.14-.13.202-.203l.032-.036a.72.72 0 00.133-.244l.012-.073a.614.614 0 00-.079-.335l-.028-.045a.697.697 0 00-.075-.102l-.074-.101c-.15-.203-.29-.406-.441-.593a.635.635 0 00-.234-.17.428.428 0 00-.276 0 1.162 1.162 0 00-.345.237l-.132.113c-.132.11-.202.181-.386.311a2.85 2.85 0 01-.531.323c-.204.105-.42.181-.644.228a3.49 3.49 0 01-2.188-.232 3.954 3.954 0 01-2.007-2.057 3.65 3.65 0 010-2.964c.197-.461.475-.883.822-1.243a4.334 4.334 0 011.187-.849 3.2 3.2 0 012.048-.244c.23.054.457.126.677.216.21.09.411.195.604.316.403.24.858.927 1.3.382l.639-.865a.38.38 0 00.067-.29.575.575 0 00-.11-.279zm-39.294 9.208L36.68 5.453a.643.643 0 00-.588-.406h-1.12a.629.629 0 00-.587.392L27.38 21.463a.627.627 0 00.04.621.631.631 0 00.543.3h1.034a.618.618 0 00.588-.391l1.68-3.955h8.494l1.67 3.955a.643.643 0 00.591.406h1.008a.625.625 0 00.544-.254.659.659 0 00.094-.664zm-11.506-5.484l.029-.063 3.367-7.9 3.377 7.963h-6.773zm75.491-1.215a6.005 6.005 0 00-.806-1.74 5.817 5.817 0 00-.911-.974 4.09 4.09 0 00-1.082-.698 5.905 5.905 0 00-1.209-.451 5.464 5.464 0 00-2.837.054c-.475.133-.93.332-1.35.59-.417.261-.801.57-1.147.922-.339.35-.627.749-.854 1.182a5.939 5.939 0 00-.55 1.4 5.523 5.523 0 00-.125 2.388 5.944 5.944 0 00.983 2.665c.266.358.571.683.911.97.323.29.689.526 1.084.702.385.194.791.345 1.209.448a5.51 5.51 0 004.185-.643 6.33 6.33 0 001.147-.92c.329-.337.607-.722.824-1.142l.018-.04a.372.372 0 00.032-.389.3.3 0 00-.256-.158h-1.67a.458.458 0 00-.369.173c-.21.257-.456.483-.729.67a3.67 3.67 0 01-3.204.364 4.09 4.09 0 01-1.08-.594 3.074 3.074 0 01-.78-.932 5.055 5.055 0 01-.36-1.219l-.01-.052h.056l8.584-.019c.352 0 .552-.22.552-.61a5.918 5.918 0 00-.256-1.947zm-1.827.766l-6.947.032.018-.059a4.19 4.19 0 01.514-1.115c.275-.408.623-.76 1.028-1.038A3.67 3.67 0 01103.65 13c.388.142.752.342 1.08.594.321.256.587.575.782.938.17.299.292.623.361.96l.012.056h-.06zM56 20.666c.346-.357.65-.753.904-1.18.253-.439.45-.909.587-1.397a5.704 5.704 0 000-3.09 5.887 5.887 0 00-2.67-3.498 6.16 6.16 0 00-1.368-.59 5.495 5.495 0 00-3.73.235c-.496.228-.96.522-1.377.876l-.074.063v-.626a.522.522 0 00-.343-.548.51.51 0 00-.227-.025h-.879a.525.525 0 00-.586.573v13.483a.56.56 0 00.336.53c.068.03.142.045.216.045h.896a.602.602 0 00.428-.16.555.555 0 00.159-.407v-3.94l.074.063c.412.349.87.638 1.36.859a5.49 5.49 0 003.728.235 5.994 5.994 0 001.387-.59 5.81 5.81 0 001.179-.91zm-2.666-.564a3.353 3.353 0 01-2.85 0 3.63 3.63 0 01-1.183-.861 4.105 4.105 0 01-.806-1.242 3.828 3.828 0 010-2.939c.195-.451.468-.864.806-1.219.34-.353.74-.64 1.183-.845a3.359 3.359 0 012.848 0c.436.208.831.493 1.166.843.333.356.6.769.79 1.22a3.805 3.805 0 010 2.936 4.475 4.475 0 01-.792 1.247c-.328.36-.723.652-1.162.86zm8.201-9.2h-.878a.523.523 0 00-.56.349.534.534 0 00-.027.234V24.95a.565.565 0 00.16.406.546.546 0 00.392.16h.895a.602.602 0 00.427-.16.544.544 0 00.16-.406v-3.94l.074.063c.412.349.87.638 1.363.859a5.487 5.487 0 003.727.235 6.03 6.03 0 001.386-.59c.43-.256.826-.565 1.18-.92.345-.358.647-.754.902-1.181.252-.44.45-.909.587-1.397a5.673 5.673 0 000-3.09 5.87 5.87 0 00-2.668-3.498 6.26 6.26 0 00-1.37-.59 5.498 5.498 0 00-3.73.235c-.497.227-.96.522-1.377.875l-.08.084v-.61a.523.523 0 00-.335-.554.51.51 0 00-.228-.029zm.794 4.172c.195-.45.468-.863.806-1.218a3.946 3.946 0 011.179-.853 3.361 3.361 0 012.848 0c.442.206.842.493 1.182.845.333.355.6.768.79 1.218a3.788 3.788 0 010 2.937c-.191.46-.459.882-.792 1.25-.329.359-.724.65-1.162.859a3.367 3.367 0 01-2.852 0 3.645 3.645 0 01-1.18-.861 4.08 4.08 0 01-.807-1.242 3.83 3.83 0 01-.012-2.935zm32.211-3.755a.531.531 0 00-.155-.43.517.517 0 00-.432-.143h-.884a.51.51 0 00-.545.343c-.025.074-.034.152-.025.23v6.463c.007.379-.075.754-.238 1.095a2.35 2.35 0 01-.604.812c-.252.21-.536.375-.841.49a2.665 2.665 0 01-2.12-.11 2.27 2.27 0 01-.785-.678 2.406 2.406 0 01-.43-.914 4.488 4.488 0 01-.133-1.032v-5.96a1.04 1.04 0 00-.13-.558.68.68 0 00-.559-.203h-.637a.692.692 0 00-.514.203.794.794 0 00-.201.587v5.95a6.08 6.08 0 00.286 1.915c.186.576.48 1.11.865 1.576.385.455.867.816 1.41 1.056a5.164 5.164 0 002.983.286c.27-.065.534-.156.787-.27.237-.11.456-.256.651-.43l.14-.13.076-.076v.453a.499.499 0 00.14.362.544.544 0 00.446.203h.895a.539.539 0 00.393-.158.486.486 0 00.161-.407V11.32zm22.494 6.325a2.953 2.953 0 00-.79-1.016 4.772 4.772 0 00-1.209-.725 8.432 8.432 0 00-1.527-.475 5.36 5.36 0 01-.749-.23 2.862 2.862 0 01-.625-.32 1.417 1.417 0 01-.581-.69 1.085 1.085 0 010-.647c.071-.238.369-.892 1.522-.965 1.102-.069 1.656.514 1.847.774.029.037.299.388.492.61a.607.607 0 00.115.08.506.506 0 00.482-.062l.673-.504a.494.494 0 00.239-.427v-.02a1.145 1.145 0 00-.153-.368 8.807 8.807 0 00-.645-.824 3.166 3.166 0 00-.713-.628 3.271 3.271 0 00-.894-.388 4.79 4.79 0 00-2.725.106 3.356 3.356 0 00-1.209.66 2.96 2.96 0 00-.792 1.04 3.216 3.216 0 00-.036 2.57c.165.37.41.698.715.962a5.43 5.43 0 001.078.725 8.23 8.23 0 001.411.516c.143.033.286.071.435.112.149.04.294.08.441.114.261.063.514.157.752.28.201.097.379.235.522.406a1.093 1.093 0 01-.022 1.258 1.896 1.896 0 01-.532.47 2.57 2.57 0 01-.671.277 2.74 2.74 0 01-1.209 0 3.049 3.049 0 01-.604-.228 2.585 2.585 0 01-.543-.365 3.006 3.006 0 01-.389-.553.865.865 0 00-.224-.308.504.504 0 00-.558-.063l-.806.384a.522.522 0 00-.288.274.45.45 0 00-.02.254.818.818 0 00.063.247c.139.369.337.712.586 1.016.276.332.613.608.991.813a3.84 3.84 0 001.141.457c.924.22 1.889.19 2.797-.09a3.766 3.766 0 001.319-.674c.378-.287.682-.662.885-1.093.2-.429.304-.896.305-1.37a3.247 3.247 0 00-.297-1.372z" fill="#fff"/></svg>
